svgs/duotone/meter-bolt.svg

<svg xmlns="http://www.w3.org/2000/svg" viewBox="0 0 640 512"><!--! Font Awesome Pro 6.4.0 by @fontawesome - https://fontawesome.com License - https://fontawesome.com/license (Commercial License) Copyright 2023 Fonticons, Inc. --><defs><style>.fa-secondary{opacity:.4}</style></defs><path class="fa-primary" d="M606.3 247.2c3.4-6.7 1.6-14.9-4.2-19.6s-14.2-4.7-20.1-.1l-160 128c-5.3 4.2-7.4 11.4-5.1 17.8s8.3 10.7 15.1 10.7h70.1L449.7 488.8c-3.4 6.7-1.6 14.9 4.3 19.6s14.2 4.7 20.1 .1l160-128c5.3-4.2 7.4-11.4 5.1-17.8s-8.3-10.7-15.1-10.7H553.9l52.4-104.8z"/><path class="fa-secondary" d="M442.8 431c-46.7 49.8-113.1 81-186.8 81C114.6 512 0 397.4 0 256S114.6 0 256 0C393 0 504.8 107.5 511.7 242.8L402 330.5c-15.9 12.7-22.1 34.1-15.3 53.4s24.9 32.1 45.3 32.1h18.3l-7.5 15zM160 128c-17.7 0-32 14.3-32 32v32c0 17.7 14.3 32 32 32s32-14.3 32-32V160c0-17.7-14.3-32-32-32zm96 0c-17.7 0-32 14.3-32 32v32c0 17.7 14.3 32 32 32s32-14.3 32-32V160c0-17.7-14.3-32-32-32zm96 0c-17.7 0-32 14.3-32 32v32c0 17.7 14.3 32 32 32s32-14.3 32-32V160c0-17.7-14.3-32-32-32z"/></svg>

<svg xmlns="http://www.w3.org/2000/svg" viewBox="0 0 640 512"><!--! Font Awesome Pro 6.3.0 by @fontawesome - https://fontawesome.com License - https://fontawesome.com/license (Commercial License) Copyright 2023 Fonticons, Inc. --><defs><style>.fa-secondary{opacity:.4}</style></defs><path class="fa-primary" d="M553.9 352H624C630.8 352 636.9 356.3 639.1 362.7C641.3 369.1 639.3 376.2 633.1 380.5L473.1 508.5C468.1 513.2 459.8 513.2 453.9 508.4C448.1 503.7 446.3 495.6 449.7 488.8L502.1 384H432C425.2 384 419.2 379.7 416.9 373.3C414.7 366.9 416.7 359.8 422 355.5L582 227.5C587.9 222.8 596.2 222.8 602.1 227.6C607.9 232.3 609.7 240.4 606.3 247.2L553.9 352z"/><path class="fa-secondary" d="M442.8 431C396.1 480.9 329.7 512 256 512C114.6 512 0 397.4 0 256C0 114.6 114.6 0 256 0C392.1 0 504.8 107.5 511.7 242.8L402 330.5C386.1 343.3 379.1 364.7 386.7 383.9C393.5 403.1 411.6 416 432 416H450.3L442.8 431zM128 160V192C128 209.7 142.3 224 160 224C177.7 224 192 209.7 192 192V160C192 142.3 177.7 128 160 128C142.3 128 128 142.3 128 160zM224 160V192C224 209.7 238.3 224 256 224C273.7 224 288 209.7 288 192V160C288 142.3 273.7 128 256 128C238.3 128 224 142.3 224 160zM320 160V192C320 209.7 334.3 224 352 224C369.7 224 384 209.7 384 192V160C384 142.3 369.7 128 352 128C334.3 128 320 142.3 320 160z"/></svg>
